icons/gesturehandler.svg

<svg height="548" viewBox="0 0 547 548" width="547" xmlns="http://www.w3.org/2000/svg" xmlns:xlink="http://www.w3.org/1999/xlink"><linearGradient id="a"><stop offset="0" stop-color="#00a99d" stop-opacity=".7"/><stop offset=".9532" stop-color="#00a99d" stop-opacity=".9859"/><stop offset="1" stop-color="#00a99d"/></linearGradient><radialGradient id="b" cx="49.999683%" cy="50.000053%" r="50.001215%" xlink:href="#a"/><radialGradient id="c" cx="49.999789%" cy="49.99963%" r="50.001215%" xlink:href="#a"/><g fill="none"><path d="m79.882 278.587c44.16-49.538 120.114-53.898 169.653-9.737 49.537 44.157 53.897 120.111 9.738 169.65-44.16 49.538-258.469 109.372-258.469 109.372s34.92-219.749 79.078-269.285z" fill="#b3e5e2"/><path d="m94.101 278.068c40.386-45.304 109.85-49.292 155.153-8.906 45.304 40.386 49.291 109.85 8.906 155.152-40.385 45.306-230.326 93.236-230.326 93.236s25.881-194.177 66.267-239.482z" fill="#59c7bf"/><circle cx="186.444" cy="339.622" fill="url(#b)" r="94.65"/><path d="m277.731 79.738c-49.538 44.16-53.898 120.114-9.737 169.653 44.157 49.537 120.111 53.897 169.65 9.738 49.538-44.16 109.372-258.47 109.372-258.47s-219.748 34.92-269.285 79.079z" fill="#b3e5e2"/><path d="m277.213 93.956c-45.304 40.386-49.292 109.85-8.906 155.153 40.386 45.304 109.85 49.291 155.152 8.906 45.306-40.385 93.235-230.326 93.235-230.326s-194.176 25.882-239.481 66.267z" fill="#59c7bf"/><circle cx="338.767" cy="186.3" fill="url(#c)" r="94.65"/></g></svg>

<?xml version="1.0" encoding="UTF-8"?>
<svg width="547px" height="548px" viewBox="0 0 547 548" version="1.1" xmlns="http://www.w3.org/2000/svg" xmlns:xlink="http://www.w3.org/1999/xlink">
    <!-- Generator: Sketch 56.2 (81672) - https://sketch.com -->
    <title>gesturehandler</title>
    <desc>Created with Sketch.</desc>
    <defs>
        <radialGradient cx="49.999683%" cy="50.0000528%" fx="49.999683%" fy="50.0000528%" r="50.001215%" id="radialGradient-1">
            <stop stop-color="#00A99D" stop-opacity="0.7" offset="0%"></stop>
            <stop stop-color="#00A99D" stop-opacity="0.9859" offset="95.32%"></stop>
            <stop stop-color="#00A99D" offset="100%"></stop>
        </radialGradient>
        <radialGradient cx="49.9997887%" cy="49.9996302%" fx="49.9997887%" fy="49.9996302%" r="50.001215%" id="radialGradient-2">
            <stop stop-color="#00A99D" stop-opacity="0.7" offset="0%"></stop>
            <stop stop-color="#00A99D" stop-opacity="0.9859" offset="95.32%"></stop>
            <stop stop-color="#00A99D" offset="100%"></stop>
        </radialGradient>
    </defs>
    <g id="Page-1" stroke="none" stroke-width="1" fill="none" fill-rule="evenodd">
        <g id="gesturehandler" fill-rule="nonzero">
            <path d="M79.882,278.587 C124.042,229.049 199.996,224.689 249.535,268.85 C299.072,313.007 303.432,388.961 259.273,438.5 C215.113,488.038 0.804,547.872 0.804,547.872 C0.804,547.872 35.724,328.123 79.882,278.587 Z" id="Path" fill="#B3E5E2"></path>
            <path d="M94.101,278.068 C134.487,232.764 203.951,228.776 249.254,269.162 C294.558,309.548 298.545,379.012 258.16,424.314 C217.775,469.62 27.834,517.55 27.834,517.55 C27.834,517.55 53.715,323.373 94.101,278.068 Z" id="Path" fill="#59C7BF"></path>
            <circle id="Oval" fill="url(#radialGradient-1)" cx="186.444" cy="339.622" r="94.65"></circle>
            <path d="M277.731,79.738 C228.193,123.898 223.833,199.852 267.994,249.391 C312.151,298.928 388.105,303.288 437.644,259.129 C487.182,214.969 547.016,0.659 547.016,0.659 C547.016,0.659 327.268,35.579 277.731,79.738 Z" id="Path" fill="#B3E5E2"></path>
            <path d="M277.213,93.956 C231.909,134.342 227.921,203.806 268.307,249.109 C308.693,294.413 378.157,298.4 423.459,258.015 C468.765,217.63 516.694,27.689 516.694,27.689 C516.694,27.689 322.518,53.571 277.213,93.956 Z" id="Path" fill="#59C7BF"></path>
            <circle id="Oval" fill="url(#radialGradient-2)" cx="338.767" cy="186.3" r="94.65"></circle>
        </g>
    </g>
</svg>
